svg/emoji_u1fa9e.svg

<?xml version="1.0" encoding="utf-8"?>
<!-- Generator: Adobe Illustrator 24.0.3, SVG Export Plug-In . SVG Version: 6.00 Build 0)  -->
<svg version="1.1" id="Layer_6" xmlns="http://www.w3.org/2000/svg" xmlns:xlink="http://www.w3.org/1999/xlink" x="0" y="0"
	 viewBox="0 0 128 128" style="enable-background:new 0 0 128 128;" xml:space="preserve">
<g>
	<path style="fill:#9E673C;" d="M103.48,61.71c0.68-0.76,1.22-1.57,1.62-2.31c2.7-4.94,3.18-11.32,1.01-16.53
		c-0.67-1.62-3.3-2.16-4.42-3.47c1.05-0.51,1.93-1.23,2.35-2.36c0.39-1.09,1-4.19-0.32-6.24c-0.08-0.12-2.21,4.91-6.94,5.66
		c-2.16,0.34-4.14-2.09-4.14-2.09s3.21-4.69,3.71-8.26c0.57-4.11,0.2-6.54-2.05-9.63c-1.38-1.9-5.12-1.05-6.61-0.72
		c-2.15,0.48-2.61,2.64-2.61,2.64c-1.66-3.12-3.93-5.46-6.61-6.74c-1.81-0.86-3.92-1.97-5.85-1.64c-1.98-2.43-5.18-4.58-8.55-4.6v0
		c-0.01,0-0.02,0-0.02,0s-0.02,0-0.02,0s-0.02,0-0.02,0c-0.01,0-0.02,0-0.02,0v0c-3.37,0.02-6.57,2.17-8.55,4.6
		c-1.93-0.33-4.04,0.78-5.85,1.64c-2.68,1.28-4.96,3.63-6.61,6.74c0,0-0.46-2.16-2.61-2.64c-1.49-0.33-5.23-1.18-6.61,0.72
		c-2.25,3.09-2.62,5.52-2.05,9.63c0.5,3.57,3.71,8.26,3.71,8.26s-1.98,2.43-4.14,2.09c-4.73-0.74-6.86-5.78-6.94-5.66
		c-1.33,2.05-0.72,5.15-0.32,6.24c0.41,1.14,1.3,1.86,2.35,2.36c-1.12,1.31-3.74,1.85-4.42,3.47c-2.17,5.21-1.69,11.59,1.01,16.53
		c0.4,0.74,0.94,1.55,1.62,2.31c-2.05,1.13-5.25,6.03-5.25,6.03v3.51v0.37c0.06,2.59,0.67,4.8,2.06,7c1.83,2.88,5.06,4.97,5.77,6.74
		c0.43,1.06,0.39,2.42-0.48,3.17c-0.9,0.76-4.33-2.37-4.59-2.1c-0.2,0.2-0.06,3.12-0.04,3.4c0.12,1.19,0.78,2.32,1.77,3
		c0.99,0.68,2.56,0.72,2.56,0.72c-2.35,10.02,2.96,15.51,7.69,17.05c2.19,0.71,5.38,0.29,6.02,0.07c1.05,3.24,2.66,7.08,6.1,8.68
		c3.96,1.84,6.89,1.85,9.91,0.76c2.72-1.12,5.59,3.78,7.9,3.84v0.01c0.01,0,0.02,0,0.02,0c0.01,0,0.02,0,0.02,0
		c0.01,0,0.02,0,0.02,0c0.01,0,0.02,0,0.02,0v-0.01c2.31-0.06,5.18-4.96,7.9-3.84c3.02,1.09,5.95,1.08,9.91-0.76
		c3.43-1.6,5.05-5.44,6.1-8.68c0.65,0.22,3.84,0.64,6.02-0.07c4.74-1.54,10.04-7.02,7.69-17.05c0,0,1.57-0.04,2.56-0.72
		c0.99-0.68,1.65-1.81,1.77-3c0.03-0.28,0.16-3.2-0.04-3.4c-0.26-0.26-3.69,2.87-4.59,2.1c-0.87-0.74-0.91-2.1-0.48-3.17
		c0.71-1.77,3.94-3.86,5.77-6.74c1.4-2.2,2-4.4,2.06-7v-0.37v-3.51C108.73,67.74,105.53,62.84,103.48,61.71z M63.95,8.26L63.95,8.26
		c0.01,0,0.02,0,0.02,0c0.01,0,0.02,0,0.02,0c0.01,0,0.02,0,0.02,0c0.01,0,0.02,0,0.02,0v0c2.36,0,4.6,1.31,5.97,3.34
		c0,0-1.88,1.5-2.67,2.06c-0.14,0.1-0.28,0.21-0.45,0.22c-0.49,0.04-1.24-2.18-1.44-2.6c-0.27-0.58-0.55-1.16-0.82-1.74
		c-0.12-0.25-0.35-0.37-0.59-0.38V9.14c-0.01,0-0.02,0.01-0.02,0.01c-0.01,0-0.02-0.01-0.02-0.01c-0.01,0-0.02,0.01-0.02,0.01
		c-0.01,0-0.02-0.01-0.02-0.01v0.01c-0.24,0.01-0.47,0.13-0.59,0.38c-0.27,0.58-0.55,1.16-0.82,1.74c-0.2,0.41-0.95,2.63-1.44,2.6
		c-0.17-0.01-0.31-0.12-0.45-0.22c-0.79-0.56-2.67-2.06-2.67-2.06C59.35,9.57,61.59,8.26,63.95,8.26z M56.95,13.25
		c0.33,0.18,1.64,2.02,2.58,6.79l4.45-0.06l0.02,0l0.02,0l4.45,0.06c0.94-4.76,2.25-6.61,2.58-6.79c0.49,1.03,0.76,2.45,0.31,4.25
		c-1.06,4.25-2.97,7.54-7.34,7.55c-0.01,0-0.02,0-0.02,0c-0.01,0-0.02,0-0.02,0c-4.37-0.01-6.28-3.3-7.34-7.55
		C56.19,15.7,56.46,14.28,56.95,13.25z M99.89,81.28c-0.73,0.7-1.84,2.03-2.43,2.74c-1.12,1.37-2.08,3.09-1.37,5.88l-3.03,2.82
		c1.62,0.74,4.48,2.47,4.18,8.36c-0.13,2.68-1.77,5.53-4.33,6.57c0,0,0.61-1.92,0-3.29c-0.66-1.47-2-2.35-3.44-2.29
		c-0.95,0.02-1.86,0.34-2.56,0.88c-1.02,0.79-3.6,1.15-3.55,2.53c0.01,0.31,1.43,3.23-0.91,6.6c-2.07,2.98-8.82,4-11.63,1.54h-6.76
		H64h-0.05h-6.76c-2.82,2.46-9.57,1.44-11.63-1.54c-2.34-3.37-0.92-6.29-0.91-6.6c0.05-1.38-2.53-1.74-3.55-2.53
		c-0.71-0.54-1.62-0.85-2.56-0.88c-1.44-0.06-2.78,0.82-3.44,2.29c-0.61,1.37,0,3.29,0,3.29c-2.56-1.05-4.2-3.89-4.33-6.57
		c-0.29-5.89,2.56-7.62,4.18-8.36l-3.03-2.82c0.71-2.79-0.25-4.51-1.37-5.88c-0.58-0.71-1.7-2.04-2.43-2.74
		c-2.39-2.29-4.95-3.87-4.95-8.93c0-5.61,5.07-5.97,5.67-6.05l0.34-4.51c-7.57-5.58-4.73-13.48-4.73-13.48
		c0.77,2.2,2.93,4.99,5.29,6.23l1.45-2.35c-1.65-1.02-2.97-3.47-3.13-5.82c-0.14-1.96,0.4-3.41,2.14-4.89
		c1.9-1.19,3.18-1.48,5.7-1.34l4.66-6.1c-0.25-0.28-0.57-0.57-0.93-0.91c-1.44-1.31-3.19-2.65-4.14-6.77
		c-0.39-1.7-0.49-4.34,0.47-5.86c0.45-0.71,1.33-1.44,2.18-1.59c0.64-0.11,1.42-0.1,1.5,0.98c0.03,0.46-0.68,1.55-2.39,1.26
		c0,0-0.04,2.55,0,2.9c0.02,0.19,0.14,0.35,0.28,0.48c0.82,0.8,2.03,0.87,3.07,0.58c-0.46,2.3-0.63,4.67-0.49,6.99l6.03-1.18
		c-0.18-3.06-2.02-12.49,4.79-17.06c1.47-0.99,2.94-1.37,4.08-1.37c-0.58,1.33-0.52,4.13-0.52,5.67c0,5.97,3.52,10.46,9.47,10.49v0
		c0.01,0,0.02,0,0.02,0c0.01,0,0.02,0,0.02,0s0.02,0,0.02,0s0.02,0,0.02,0v0c5.95-0.02,9.47-4.52,9.47-10.49
		c0-1.54,0.06-4.34-0.52-5.67c1.14-0.01,2.6,0.38,4.08,1.37c6.81,4.57,4.97,14,4.79,17.06l6.03,1.18c0.14-2.32-0.04-4.69-0.49-6.99
		c1.04,0.29,2.25,0.22,3.07-0.58c0.14-0.13,0.26-0.29,0.28-0.48c0.04-0.35,0-2.9,0-2.9c-1.71,0.29-2.43-0.8-2.39-1.26
		c0.08-1.08,0.86-1.09,1.5-0.98c0.85,0.15,1.73,0.88,2.18,1.59c0.96,1.52,0.86,4.16,0.47,5.86c-0.94,4.11-2.7,5.46-4.14,6.77
		c-0.36,0.33-0.68,0.63-0.93,0.91l4.66,6.1c2.52-0.13,3.8,0.15,5.7,1.34c1.75,1.48,2.28,2.93,2.14,4.89
		c-0.16,2.35-1.48,4.8-3.13,5.82l1.45,2.35c2.36-1.24,4.52-4.03,5.29-6.23c0,0,2.85,7.9-4.73,13.48l0.34,4.51
		c0.6,0.08,5.67,0.44,5.67,6.05C104.84,77.41,102.28,78.99,99.89,81.28z"/>
	<path style="fill:#D68B52;" d="M106.66,75.71c1.48-2.34,2.06-5.09,2.06-7.84c0-4.79-2.58-7.59-5.25-9.06
		c0.68-0.76,1.22-1.57,1.62-2.31c2.7-4.94,2.64-11.28-0.15-16.17c-0.87-1.52-2.14-2.52-3.25-3.83c1.05-0.51,1.93-1.23,2.35-2.36
		c0.39-1.09,0.27-2.35-0.32-3.34c-0.07-0.12-0.18-0.26-0.32-0.26c-0.12,0-0.22,0.08-0.31,0.16c-0.58,0.55-1.13,1.14-1.77,1.61
		c-1.29,0.94-2.94,1.34-4.53,1.24c-2.18-0.14-4.14-2.09-4.14-2.09s3.06-4.89,3.32-8.48c0.29-4.01-1.19-6.24-2.49-7.4
		c-1.74-1.57-4.06-2.06-5.55-1.72c-2.15,0.48-2.85,1.64-2.85,1.64c-1.66-3.12-3.93-5.46-6.61-6.74c-1.81-0.86-4.11-1-6.04-0.67
		C70.42,5.64,67.39,4.07,64,4.07s-6.42,1.57-8.42,4.01c-1.93-0.33-4.23-0.2-6.04,0.67c-2.68,1.28-4.96,3.63-6.61,6.74
		c0,0-0.69-1.16-2.85-1.64c-1.49-0.33-3.81,0.16-5.55,1.72c-1.29,1.16-2.77,3.39-2.49,7.4c0.26,3.6,3.32,8.48,3.32,8.48
		s-1.96,1.96-4.14,2.09c-1.6,0.1-3.24-0.3-4.53-1.24c-0.65-0.47-1.19-1.07-1.77-1.61c-0.09-0.08-0.19-0.17-0.31-0.16
		c-0.14,0.01-0.25,0.14-0.32,0.26c-0.6,0.99-0.72,2.25-0.32,3.34c0.41,1.14,1.3,1.86,2.35,2.36c-1.12,1.31-2.38,2.31-3.25,3.83
		c-2.79,4.89-2.85,11.23-0.15,16.17c0.4,0.74,0.94,1.55,1.62,2.31c-2.67,1.47-5.25,4.27-5.25,9.06c0,2.75,0.58,5.51,2.06,7.84
		c1.83,2.88,5.06,4.97,5.77,6.74c0.43,1.06,0.39,2.42-0.48,3.17c-0.9,0.76-2.23,0.62-3.39,0.37c-0.36-0.08-0.79-0.14-1.06,0.12
		c-0.2,0.2-0.21,0.52-0.18,0.8c0.12,1.19,0.78,2.32,1.77,3c0.99,0.68,2.28,0.9,3.43,0.58c-0.33,1.07-1.56,3.58-0.73,7.22
		c0.97,4.28,3.38,8.61,7.55,9.97c2.19,0.71,4.57,0.5,5.22,0.28c0.63,3.71,3.15,7.05,6.5,8.83c3.55,1.89,7.3,1.49,10.32,0.4
		c3.03-1.28,6.11,3.98,7.95,3.84c1.53-0.12,5.15-4.9,7.95-3.84c3.02,1.09,6.77,1.49,10.32-0.4c3.34-1.78,5.87-5.12,6.5-8.83
		c0.65,0.22,3.03,0.43,5.22-0.28c4.17-1.36,6.58-5.69,7.55-9.97c0.83-3.64-0.4-6.15-0.73-7.22c1.16,0.32,2.45,0.1,3.43-0.58
		c0.99-0.68,1.65-1.81,1.77-3c0.03-0.28,0.01-0.6-0.18-0.8c-0.26-0.26-0.69-0.2-1.06-0.12c-1.15,0.24-2.49,0.39-3.39-0.37
		c-0.87-0.74-0.91-2.1-0.48-3.17C101.61,80.68,104.84,78.59,106.66,75.71z M56.82,10.79c0.03,0.03,0.06,0.05,0.09,0.08
		c0.94,0.72,2.18,3.79,2.61,6.26L64,17.07l4.47,0.06c0.43-2.47,1.67-5.55,2.61-6.26c0.03-0.02,0.06-0.05,0.09-0.08
		c0.49,1.03,0.77,2.18,0.77,3.4c0,4.38-3.57,7.95-7.95,7.95s-7.95-3.57-7.95-7.95C56.05,12.98,56.33,11.83,56.82,10.79z M64,6.24
		c2.82,0,5.29,1.48,6.7,3.69c-0.21-0.04-0.42-0.07-0.63-0.06c-0.97,0.01-1.93,0.33-2.73,0.89c-0.14,0.1-0.28,0.21-0.45,0.22
		c-0.49,0.04-1.24-2.18-1.44-2.6c-0.27-0.58-0.55-1.16-0.82-1.74C64.51,6.37,64.25,6.24,64,6.24c-0.25,0-0.51,0.13-0.63,0.4
		c-0.27,0.58-0.55,1.16-0.82,1.74c-0.2,0.41-0.95,2.63-1.44,2.6c-0.17-0.01-0.31-0.12-0.45-0.22c-0.79-0.56-1.76-0.87-2.73-0.89
		c-0.21,0-0.43,0.02-0.63,0.06C58.71,7.72,61.18,6.24,64,6.24z M99.89,78.38c-0.73,0.7-1.84,2.03-2.43,2.74
		c-1.12,1.37-2.08,3.09-1.37,5.88l-3.03,2.82c1.62,0.74,4.48,2.47,4.18,8.36c-0.13,2.68-1.77,5.53-4.33,6.57c0,0,0.61-1.92,0-3.29
		c-0.66-1.47-2-2.35-3.44-2.29c-0.95,0.02-1.86,0.34-2.56,0.88c-1.02,0.79-1.58,2.03-1.53,3.4c0.01,0.31,0.06,0.62,0.13,0.92
		c0.48,3.61-0.73,6.45-3.7,8.4c-3.78,2.47-8.17,0.41-10.99-2.05H57.19c-2.82,2.46-7.21,4.52-10.99,2.05
		c-2.97-1.95-4.18-4.79-3.7-8.4c0.07-0.3,0.12-0.61,0.13-0.92c0.05-1.38-0.51-2.62-1.53-3.4c-0.71-0.54-1.62-0.85-2.56-0.88
		c-1.44-0.06-2.78,0.82-3.44,2.29c-0.61,1.37,0,3.29,0,3.29c-2.56-1.05-4.2-3.89-4.33-6.57c-0.29-5.89,2.56-7.62,4.18-8.36L31.91,87
		c0.71-2.79-0.25-4.51-1.37-5.88c-0.58-0.71-1.7-2.04-2.43-2.74c-2.39-2.29-4.95-3.87-4.95-8.93c0-5.61,5.07-5.97,5.67-6.05
		l0.34-4.51c-7.57-5.58-4-13.3-4-13.3c0.77,2.2,2.47,4.76,4.57,6.06l1.45-2.35c-1.65-1.02-2.97-3.47-3.13-5.82
		c-0.14-1.96,0.4-3.41,2.14-4.89c1.9-1.19,3.18-1.48,5.7-1.34l4.66-6.1c-0.25-0.28-0.57-0.57-0.93-0.91
		c-1.44-1.31-3.19-2.65-4.14-6.77c-0.39-1.7-0.37-3.83,0.6-5.35c0.45-0.71,1.33-1.44,2.18-1.59c1.27-0.23,2.45,0.69,1.9,2.02
		c-0.35,0.85-1.52,1.19-2.37,1.76c-0.29,0.2-0.58,0.5-0.54,0.85c0.02,0.19,0.14,0.35,0.28,0.48c0.82,0.8,2.03,0.87,3.07,0.58
		c-0.46,2.3-0.63,4.67-0.49,6.99l3.86-0.23c-0.18-3.06-0.79-12.45,6.02-17.02c1.47-0.99,2.94-1.37,4.08-1.37
		c-0.58,1.33-0.91,2.79-0.91,4.33c0,5.98,4.87,10.85,10.85,10.85s10.85-4.87,10.85-10.85c0-1.54-0.33-3-0.91-4.33
		c1.14-0.01,2.6,0.38,4.08,1.37c6.81,4.57,6.2,13.96,6.02,17.02l3.86,0.23c0.14-2.32-0.04-4.69-0.49-6.99
		c1.04,0.29,2.25,0.22,3.07-0.58c0.14-0.13,0.26-0.29,0.28-0.48c0.04-0.35-0.25-0.65-0.54-0.85c-0.85-0.57-2.01-0.98-2.36-1.83
		c-0.55-1.33,0.61-2.18,1.89-1.96c0.85,0.15,1.73,0.88,2.18,1.59c0.96,1.52,0.99,3.65,0.6,5.35c-0.94,4.11-2.7,5.46-4.14,6.77
		c-0.36,0.33-0.68,0.63-0.93,0.91l4.66,6.1c2.52-0.13,3.8,0.15,5.7,1.34c1.75,1.48,2.28,2.93,2.14,4.89
		c-0.16,2.35-1.48,4.8-3.13,5.82l1.45,2.35c2.1-1.3,3.8-3.86,4.57-6.06c0,0,3.57,7.73-4,13.3l0.34,4.51
		c0.6,0.08,5.67,0.44,5.67,6.05C104.84,74.51,102.28,76.09,99.89,78.38z"/>
	<ellipse style="fill:#9E673C;" cx="63.95" cy="66.83" rx="36.37" ry="47.91"/>
	<ellipse style="fill:#F5AD71;" cx="63.95" cy="64.16" rx="36.37" ry="47.91"/>
	
		<radialGradient id="SVGID_1_" cx="66.0334" cy="55.2467" r="64.4913" gradientTransform="matrix(1 0 0 0.9086 0 7.9423)" gradientUnits="userSpaceOnUse">
		<stop  offset="0.3678" style="stop-color:#E1F5FE"/>
		<stop  offset="0.5186" style="stop-color:#CFEFFD"/>
		<stop  offset="0.8199" style="stop-color:#A0DFFB"/>
		<stop  offset="1" style="stop-color:#81D4FA"/>
	</radialGradient>
	<ellipse style="fill:url(#SVGID_1_);" cx="63.95" cy="64.16" rx="33.17" ry="43.7"/>
	<ellipse style="fill:#BA793E;" cx="63.95" cy="64.16" rx="33.19" ry="43.73"/>
	<linearGradient id="SVGID_2_" gradientUnits="userSpaceOnUse" x1="79.6956" y1="27.8169" x2="48.6805" y2="102.7925">
		<stop  offset="0" style="stop-color:#B3E5FC"/>
		<stop  offset="0.5282" style="stop-color:#CBEEFD"/>
		<stop  offset="0.9284" style="stop-color:#E1F5FE"/>
	</linearGradient>
	<ellipse style="fill:url(#SVGID_2_);" cx="63.95" cy="65.88" rx="31.95" ry="42.1"/>
	<path style="fill:#9E673C;" d="M35.64,103.14c-0.63-1.13-0.49-1.74-0.39-1.99c-0.05,0.1-0.11,0.2-0.16,0.3
		c-0.61,1.37,0,3.29,0,3.29c1.45,0.51,2.9-0.07,2.9-0.07S36.37,104.46,35.64,103.14z"/>
	<path style="fill:#9E673C;" d="M92.34,103.14c0.63-1.13,0.49-1.74,0.39-1.99c0.05,0.1,0.11,0.2,0.16,0.3c0.61,1.37,0,3.29,0,3.29
		c-1.45,0.51-2.9-0.07-2.9-0.07S91.61,104.46,92.34,103.14z"/>
	
		<radialGradient id="SVGID_3_" cx="63.5081" cy="66.2941" r="53.0901" gradientTransform="matrix(0.7206 0.7669 -0.4583 0.4662 49.8946 -10.6311)" gradientUnits="userSpaceOnUse">
		<stop  offset="0.433" style="stop-color:#FFFFFF;stop-opacity:0"/>
		<stop  offset="0.9505" style="stop-color:#FFFFFF"/>
	</radialGradient>
	<path style="fill:url(#SVGID_3_);" d="M88.8,48.54c5.99,14.16,3.83,28.6-4.82,32.26c-8.65,3.66-20.52-4.85-26.51-19.01
		s-3.83-28.6,4.82-32.26S82.81,34.38,88.8,48.54z"/>
</g>
</svg>

<?xml version="1.0" encoding="UTF-8" standalone="no"?>
<!DOCTYPE svg PUBLIC "-//W3C//DTD SVG 1.1//EN" "http://www.w3.org/Graphics/SVG/1.1/DTD/svg11.dtd">
<svg width="100%" height="100%" viewBox="0 0 128 128" version="1.1" xmlns="http://www.w3.org/2000/svg" xmlns:xlink="http://www.w3.org/1999/xlink" xml:space="preserve" xmlns:serif="http://www.serif.com/" style="fill-rule:evenodd;clip-rule:evenodd;stroke-linejoin:round;stroke-miterlimit:2;">
    <g>
        <path d="M106.66,75.71C108.14,73.37 108.72,70.62 108.72,67.87C108.72,63.08 106.14,60.28 103.47,58.81C104.15,58.05 104.69,57.24 105.09,56.5C107.79,51.56 107.73,45.22 104.94,40.33C104.07,38.81 102.8,37.81 101.69,36.5C102.74,35.99 103.62,35.27 104.04,34.14C104.43,33.05 104.31,31.79 103.72,30.8C103.65,30.68 103.54,30.54 103.4,30.54C103.28,30.54 103.18,30.62 103.09,30.7C102.51,31.25 101.96,31.84 101.32,32.31C100.03,33.25 98.38,33.65 96.79,33.55C94.61,33.41 92.65,31.46 92.65,31.46C92.65,31.46 95.71,26.57 95.97,22.98C96.26,18.97 94.78,16.74 93.48,15.58C91.74,14.01 89.42,13.52 87.93,13.86C85.78,14.34 85.08,15.5 85.08,15.5C83.42,12.38 81.15,10.04 78.47,8.76C76.66,7.9 74.36,7.76 72.43,8.09C70.42,5.64 67.39,4.07 64,4.07C60.61,4.07 57.58,5.64 55.58,8.08C53.65,7.75 51.35,7.88 49.54,8.75C46.86,10.03 44.58,12.38 42.93,15.49C42.93,15.49 42.24,14.33 40.08,13.85C38.59,13.52 36.27,14.01 34.53,15.57C33.24,16.73 31.76,18.96 32.04,22.97C32.3,26.57 35.36,31.45 35.36,31.45C35.36,31.45 33.4,33.41 31.22,33.54C29.62,33.64 27.98,33.24 26.69,32.3C26.04,31.83 25.5,31.23 24.92,30.69C24.83,30.61 24.73,30.52 24.61,30.53C24.47,30.54 24.36,30.67 24.29,30.79C23.69,31.78 23.57,33.04 23.97,34.13C24.38,35.27 25.27,35.99 26.32,36.49C25.2,37.8 23.94,38.8 23.07,40.32C20.28,45.21 20.22,51.55 22.92,56.49C23.32,57.23 23.86,58.04 24.54,58.8C21.87,60.27 19.29,63.07 19.29,67.86C19.29,70.61 19.87,73.37 21.35,75.7C23.18,78.58 26.41,80.67 27.12,82.44C27.55,83.5 27.51,84.86 26.64,85.61C25.74,86.37 24.41,86.23 23.25,85.98C22.89,85.9 22.46,85.84 22.19,86.1C21.99,86.3 21.98,86.62 22.01,86.9C22.13,88.09 22.79,89.22 23.78,89.9C24.77,90.58 26.06,90.8 27.21,90.48C26.88,91.55 25.65,94.06 26.48,97.7C27.45,101.98 29.86,106.31 34.03,107.67C36.22,108.38 38.6,108.17 39.25,107.95C39.88,111.66 42.4,115 45.75,116.78C49.3,118.67 53.05,118.27 56.07,117.18C59.1,115.9 62.18,121.16 64.02,121.02C65.55,120.9 69.17,116.12 71.97,117.18C74.99,118.27 78.74,118.67 82.29,116.78C85.63,115 88.16,111.66 88.79,107.95C89.44,108.17 91.82,108.38 94.01,107.67C98.18,106.31 100.59,101.98 101.56,97.7C102.39,94.06 101.16,91.55 100.83,90.48C101.99,90.8 103.28,90.58 104.26,89.9C105.25,89.22 105.91,88.09 106.03,86.9C106.06,86.62 106.04,86.3 105.85,86.1C105.59,85.84 105.16,85.9 104.79,85.98C103.64,86.22 102.3,86.37 101.4,85.61C100.53,84.87 100.49,83.51 100.92,82.44C101.61,80.68 104.84,78.59 106.66,75.71ZM56.82,10.79C56.85,10.82 56.88,10.84 56.91,10.87C57.85,11.59 59.09,14.66 59.52,17.13L64,17.07L68.47,17.13C68.9,14.66 70.14,11.58 71.08,10.87C71.11,10.85 71.14,10.82 71.17,10.79C71.66,11.82 71.94,12.97 71.94,14.19C71.94,18.57 68.37,22.14 63.99,22.14C59.61,22.14 56.04,18.57 56.04,14.19C56.05,12.98 56.33,11.83 56.82,10.79ZM64,6.24C66.82,6.24 69.29,7.72 70.7,9.93C70.49,9.89 70.28,9.86 70.07,9.87C69.1,9.88 68.14,10.2 67.34,10.76C67.2,10.86 67.06,10.97 66.89,10.98C66.4,11.02 65.65,8.8 65.45,8.38C65.18,7.8 64.9,7.22 64.63,6.64C64.51,6.37 64.25,6.24 64,6.24C63.75,6.24 63.49,6.37 63.37,6.64C63.1,7.22 62.82,7.8 62.55,8.38C62.35,8.79 61.6,11.01 61.11,10.98C60.94,10.97 60.8,10.86 60.66,10.76C59.87,10.2 58.9,9.89 57.93,9.87C57.72,9.87 57.5,9.89 57.3,9.93C58.71,7.72 61.18,6.24 64,6.24ZM99.89,78.38C99.16,79.08 98.05,80.41 97.46,81.12C96.34,82.49 95.38,84.21 96.09,87L93.06,89.82C94.68,90.56 97.54,92.29 97.24,98.18C97.11,100.86 95.47,103.71 92.91,104.75C92.91,104.75 93.52,102.83 92.91,101.46C92.25,99.99 90.91,99.11 89.47,99.17C88.52,99.19 87.61,99.51 86.91,100.05C85.89,100.84 85.33,102.08 85.38,103.45C85.39,103.76 85.44,104.07 85.51,104.37C85.99,107.98 84.78,110.82 81.81,112.77C78.03,115.24 73.64,113.18 70.82,110.72L57.19,110.72C54.37,113.18 49.98,115.24 46.2,112.77C43.23,110.82 42.02,107.98 42.5,104.37C42.57,104.07 42.62,103.76 42.63,103.45C42.68,102.07 42.12,100.83 41.1,100.05C40.39,99.51 39.48,99.2 38.54,99.17C37.1,99.11 35.76,99.99 35.1,101.46C34.49,102.83 35.1,104.75 35.1,104.75C32.54,103.7 30.9,100.86 30.77,98.18C30.48,92.29 33.33,90.56 34.95,89.82L31.91,87C32.62,84.21 31.66,82.49 30.54,81.12C29.96,80.41 28.84,79.08 28.11,78.38C25.72,76.09 23.16,74.51 23.16,69.45C23.16,63.84 28.23,63.48 28.83,63.4L29.17,58.89C21.6,53.31 25.17,45.59 25.17,45.59C25.94,47.79 27.64,50.35 29.74,51.65L31.19,49.3C29.54,48.28 28.22,45.83 28.06,43.48C27.92,41.52 28.46,40.07 30.2,38.59C32.1,37.4 33.38,37.11 35.9,37.25L40.56,31.15C40.31,30.87 39.99,30.58 39.63,30.24C38.19,28.93 36.44,27.59 35.49,23.47C35.1,21.77 35.12,19.64 36.09,18.12C36.54,17.41 37.42,16.68 38.27,16.53C39.54,16.3 40.72,17.22 40.17,18.55C39.82,19.4 38.65,19.74 37.8,20.31C37.51,20.51 37.22,20.81 37.26,21.16C37.28,21.35 37.4,21.51 37.54,21.64C38.36,22.44 39.57,22.51 40.61,22.22C40.15,24.52 39.98,26.89 40.12,29.21L43.98,28.98C43.8,25.92 43.19,16.53 50,11.96C51.47,10.97 52.94,10.59 54.08,10.59C53.5,11.92 53.17,13.38 53.17,14.92C53.17,20.9 58.04,25.77 64.02,25.77C70,25.77 74.87,20.9 74.87,14.92C74.87,13.38 74.54,11.92 73.96,10.59C75.1,10.58 76.56,10.97 78.04,11.96C84.85,16.53 84.24,25.92 84.06,28.98L87.92,29.21C88.06,26.89 87.88,24.52 87.43,22.22C88.47,22.51 89.68,22.44 90.5,21.64C90.64,21.51 90.76,21.35 90.78,21.16C90.82,20.81 90.53,20.51 90.24,20.31C89.39,19.74 88.23,19.33 87.88,18.48C87.33,17.15 88.49,16.3 89.77,16.52C90.62,16.67 91.5,17.4 91.95,18.11C92.91,19.63 92.94,21.76 92.55,23.46C91.61,27.57 89.85,28.92 88.41,30.23C88.05,30.56 87.73,30.86 87.48,31.14L92.14,37.24C94.66,37.11 95.94,37.39 97.84,38.58C99.59,40.06 100.12,41.51 99.98,43.47C99.82,45.82 98.5,48.27 96.85,49.29L98.3,51.64C100.4,50.34 102.1,47.78 102.87,45.58C102.87,45.58 106.44,53.31 98.87,58.88L99.21,63.39C99.81,63.47 104.88,63.83 104.88,69.44C104.84,74.51 102.28,76.09 99.89,78.38Z" style="fill:rgb(241,124,4);fill-rule:nonzero;"/>
        <ellipse cx="63.95" cy="64.16" rx="36.37" ry="47.91" style="fill:rgb(247,147,41);"/>
        <g transform="matrix(1,0,0,1,-7.10543e-15,-1.64)">
            <ellipse cx="63.95" cy="65.88" rx="31.95" ry="42.1" style="fill:rgb(98,205,234);"/>
        </g>
    </g>
</svg>
